packages/templates/gallery/crop-hidden-inactive-555.svg

<svg class="typst-doc" viewBox="0 0 366 198" width="366pt" height="198pt" xmlns="http://www.w3.org/2000/svg" xmlns:xlink="http://www.w3.org/1999/xlink" xmlns:h5="http://www.w3.org/1999/xhtml">
    <path class="typst-shape" fill="#ffffff" fill-rule="nonzero" d="M 0 0v 198 h 366 v -198 Z "/>
    <g>
        <g class="typst-group" transform="matrix(1 0 0 1 130.5 17)">
            <g>
                <g class="typst-group">
                    <g>
                        <path class="typst-shape" fill="#eeeeee" fill-rule="nonzero" transform="matrix(1 0 0 1 15.4 24.199999999999996)" d="M 0 0v 19.2 h 4.2 v -19.2 Z "/>
                        <g class="typst-group" transform="matrix(1 0 0 1 5.740000000000002 24.199999999999996)">
                            <g>
                                <path class="typst-shape" fill="#f18f01" fill-rule="nonzero" stroke="#000000" stroke-width="0.5" stroke-linecap="butt" stroke-linejoin="miter" stroke-miterlimit="4" d="M 0 0m 11.76 0 l 11.76 8.4 l -11.76 8.4 l -11.76 -8.4 Z "/>
                            </g>
                        </g>
                        <a transform="matrix(1 0 0 1 5.740000000000002 24.199999999999996)" href="bead://heaven-col2-active1" xlink:href="bead://heaven-col2-active1">
                            <rect width="23.519999999999996" height="16.8" fill="transparent" stroke="none"/>
                        </a>
                        <path class="typst-shape" fill="#eeeeee" fill-rule="nonzero" transform="matrix(1 0 0 1 50.4 24.199999999999996)" d="M 0 0v 19.2 h 4.2 v -19.2 Z "/>
                        <g class="typst-group" transform="matrix(1 0 0 1 40.74 24.199999999999996)">
                            <g>
                                <path class="typst-shape" fill="#f18f01" fill-rule="nonzero" stroke="#000000" stroke-width="0.5" stroke-linecap="butt" stroke-linejoin="miter" stroke-miterlimit="4" d="M 0 0m 11.76 0 l 11.76 8.4 l -11.76 8.4 l -11.76 -8.4 Z "/>
                            </g>
                        </g>
                        <a transform="matrix(1 0 0 1 40.74 24.199999999999996)" href="bead://heaven-col1-active1" xlink:href="bead://heaven-col1-active1">
                            <rect width="23.519999999999996" height="16.8" fill="transparent" stroke="none"/>
                        </a>
                        <path class="typst-shape" fill="#eeeeee" fill-rule="nonzero" transform="matrix(1 0 0 1 85.39999999999999 24.199999999999996)" d="M 0 0v 19.2 h 4.2 v -19.2 Z "/>
                        <g class="typst-group" transform="matrix(1 0 0 1 75.74 24.199999999999996)">
                            <g>
                                <path class="typst-shape" fill="#f18f01" fill-rule="nonzero" stroke="#000000" stroke-width="0.5" stroke-linecap="butt" stroke-linejoin="miter" stroke-miterlimit="4" d="M 0 0m 11.76 0 l 11.76 8.4 l -11.76 8.4 l -11.76 -8.4 Z "/>
                            </g>
                        </g>
                        <a transform="matrix(1 0 0 1 75.74 24.199999999999996)" href="bead://heaven-col0-active1" xlink:href="bead://heaven-col0-active1">
                            <rect width="23.519999999999996" height="16.8" fill="transparent" stroke="none"/>
                        </a>
                        <path class="typst-shape" fill="#000000" fill-rule="nonzero" transform="matrix(1 0 0 1 0 42)" d="M 0 0v 2.8 h 105 v -2.8 Z "/>
                        <path class="typst-shape" fill="#ff4136" fill-rule="nonzero" stroke="#ff4136" stroke-width="0.5" stroke-linecap="butt" stroke-linejoin="miter" stroke-miterlimit="4" stroke-dashoffset="0" stroke-dasharray="3 3" transform="matrix(1 0 0 1 -23.519999999999996 -16.79999999999999)" d="M 0 0v 190.96 h 0.5 v -190.96 Z "/>
                        <path class="typst-shape" fill="#ff4136" fill-rule="nonzero" stroke="#ff4136" stroke-width="0.5" stroke-linecap="butt" stroke-linejoin="miter" stroke-miterlimit="4" stroke-dashoffset="0" stroke-dasharray="3 3" transform="matrix(1 0 0 1 128.51999999999998 -16.79999999999999)" d="M 0 0v 190.96 h 0.5 v -190.96 Z "/>
                        <path class="typst-shape" fill="#ff4136" fill-rule="nonzero" stroke="#ff4136" stroke-width="0.5" stroke-linecap="butt" stroke-linejoin="miter" stroke-miterlimit="4" stroke-dashoffset="0" stroke-dasharray="3 3" transform="matrix(1 0 0 1 -23.519999999999996 -16.79999999999999)" d="M 0 0v 0.5 h 152.04 v -0.5 Z "/>
                        <path class="typst-shape" fill="#ff4136" fill-rule="nonzero" stroke="#ff4136" stroke-width="0.5" stroke-linecap="butt" stroke-linejoin="miter" stroke-miterlimit="4" stroke-dashoffset="0" stroke-dasharray="3 3" transform="matrix(1 0 0 1 -23.519999999999996 174.16)" d="M 0 0v 0.5 h 152.04 v -0.5 Z "/>
                        <g class="typst-group">
                            <g>
                                <path class="typst-shape" fill="#ff4136" fill-rule="nonzero" transform="matrix(1 0 0 1 -23.519999999999996 41.9)" d="M 0 0v 0.1 h 0.1 v -0.1 Z "/>
                                <a transform="matrix(1 0 0 1 -23.519999999999996 41.9)" href="crop-mark://left" xlink:href="crop-mark://left">
                                    <rect width="0.1" height="0.1" fill="transparent" stroke="none"/>
                                </a>
                            </g>
                        </g>
                        <g class="typst-group">
                            <g>
                                <path class="typst-shape" fill="#ff4136" fill-rule="nonzero" transform="matrix(1 0 0 1 128.51999999999998 41.9)" d="M 0 0v 0.1 h 0.1 v -0.1 Z "/>
                                <a transform="matrix(1 0 0 1 128.51999999999998 41.9)" href="crop-mark://right" xlink:href="crop-mark://right">
                                    <rect width="0.1" height="0.1" fill="transparent" stroke="none"/>
                                </a>
                            </g>
                        </g>
                        <g class="typst-group">
                            <g>
                                <path class="typst-shape" fill="#ff4136" fill-rule="nonzero" transform="matrix(1 0 0 1 51 -16.79999999999999)" d="M 0 0v 0.1 h 0.1 v -0.1 Z "/>
                                <a transform="matrix(1 0 0 1 51 -16.79999999999999)" href="crop-mark://top" xlink:href="crop-mark://top">
                                    <rect width="0.1" height="0.1" fill="transparent" stroke="none"/>
                                </a>
                            </g>
                        </g>
                        <g class="typst-group">
                            <g>
                                <path class="typst-shape" fill="#ff4136" fill-rule="nonzero" transform="matrix(1 0 0 1 51 174.16)" d="M 0 0v 0.1 h 0.1 v -0.1 Z "/>
                                <a transform="matrix(1 0 0 1 51 174.16)" href="crop-mark://bottom" xlink:href="crop-mark://bottom">
                                    <rect width="0.1" height="0.1" fill="transparent" stroke="none"/>
                                </a>
                            </g>
                        </g>
                    </g>
                </g>
            </g>
        </g>
    </g>
</svg>

<svg class="typst-doc" viewBox="0 0 366 198" width="366pt" height="198pt" xmlns="http://www.w3.org/2000/svg" xmlns:xlink="http://www.w3.org/1999/xlink" xmlns:h5="http://www.w3.org/1999/xhtml">
    <path class="typst-shape" fill="#ffffff" fill-rule="nonzero" d="M 0 0 L 0 198 L 366 198 L 366 0 Z "/>
    <g>
        <g transform="translate(130.5 17)">
            <g class="typst-group">
                <g>
                    <g transform="translate(0 0)">
                        <g class="typst-group">
                            <g>
                                <g transform="translate(15.4 24.199999999999996)">
                                    <path class="typst-shape" fill="#eeeeee" fill-rule="nonzero" d="M 0 0 L 0 19.2 L 4.2 19.2 L 4.2 0 Z "/>
                                </g>
                                <g transform="translate(5.740000000000002 24.199999999999996)">
                                    <g class="typst-group">
                                        <g>
                                            <g transform="translate(0 0)">
                                                <path class="typst-shape" fill="#f18f01" fill-rule="nonzero" stroke="#000000" stroke-width="0.5" stroke-linecap="butt" stroke-linejoin="miter" stroke-miterlimit="4" d="M 11.76 0 L 23.52 8.4 L 11.76 16.8 L 0 8.4 Z "/>
                                            </g>
                                        </g>
                                    </g>
                                </g>
                                <g transform="translate(50.4 24.199999999999996)">
                                    <path class="typst-shape" fill="#eeeeee" fill-rule="nonzero" d="M 0 0 L 0 19.2 L 4.2 19.2 L 4.2 0 Z "/>
                                </g>
                                <g transform="translate(40.74 24.199999999999996)">
                                    <g class="typst-group">
                                        <g>
                                            <g transform="translate(0 0)">
                                                <path class="typst-shape" fill="#f18f01" fill-rule="nonzero" stroke="#000000" stroke-width="0.5" stroke-linecap="butt" stroke-linejoin="miter" stroke-miterlimit="4" d="M 11.76 0 L 23.52 8.4 L 11.76 16.8 L 0 8.4 Z "/>
                                            </g>
                                        </g>
                                    </g>
                                </g>
                                <g transform="translate(85.39999999999999 24.199999999999996)">
                                    <path class="typst-shape" fill="#eeeeee" fill-rule="nonzero" d="M 0 0 L 0 19.2 L 4.2 19.2 L 4.2 0 Z "/>
                                </g>
                                <g transform="translate(75.74 24.199999999999996)">
                                    <g class="typst-group">
                                        <g>
                                            <g transform="translate(0 0)">
                                                <path class="typst-shape" fill="#f18f01" fill-rule="nonzero" stroke="#000000" stroke-width="0.5" stroke-linecap="butt" stroke-linejoin="miter" stroke-miterlimit="4" d="M 11.76 0 L 23.52 8.4 L 11.76 16.8 L 0 8.4 Z "/>
                                            </g>
                                        </g>
                                    </g>
                                </g>
                                <g transform="translate(0 42)">
                                    <path class="typst-shape" fill="#000000" fill-rule="nonzero" d="M 0 0 L 0 2.8 L 105 2.8 L 105 0 Z "/>
                                </g>
                                <g transform="translate(-23.519999999999996 -16.79999999999999)">
                                    <path class="typst-shape" fill="#ff4136" fill-rule="nonzero" stroke="#ff4136" stroke-width="0.5" stroke-linecap="butt" stroke-linejoin="miter" stroke-miterlimit="4" stroke-dashoffset="0" stroke-dasharray="3 3" d="M 0 0 L 0 190.96 L 0.5 190.96 L 0.5 0 Z "/>
                                </g>
                                <g transform="translate(128.51999999999998 -16.79999999999999)">
                                    <path class="typst-shape" fill="#ff4136" fill-rule="nonzero" stroke="#ff4136" stroke-width="0.5" stroke-linecap="butt" stroke-linejoin="miter" stroke-miterlimit="4" stroke-dashoffset="0" stroke-dasharray="3 3" d="M 0 0 L 0 190.96 L 0.5 190.96 L 0.5 0 Z "/>
                                </g>
                                <g transform="translate(-23.519999999999996 -16.79999999999999)">
                                    <path class="typst-shape" fill="#ff4136" fill-rule="nonzero" stroke="#ff4136" stroke-width="0.5" stroke-linecap="butt" stroke-linejoin="miter" stroke-miterlimit="4" stroke-dashoffset="0" stroke-dasharray="3 3" d="M 0 0 L 0 0.5 L 152.04 0.5 L 152.04 0 Z "/>
                                </g>
                                <g transform="translate(-23.519999999999996 174.16)">
                                    <path class="typst-shape" fill="#ff4136" fill-rule="nonzero" stroke="#ff4136" stroke-width="0.5" stroke-linecap="butt" stroke-linejoin="miter" stroke-miterlimit="4" stroke-dashoffset="0" stroke-dasharray="3 3" d="M 0 0 L 0 0.5 L 152.04 0.5 L 152.04 0 Z "/>
                                </g>
                                <g transform="translate(-23.519999999999996 41.9)">
                                    <path class="typst-shape" fill="#ff4136" fill-rule="nonzero" d="M 0 0 L 0 0.1 L 0.1 0.1 L 0.1 0 Z "/>
                                </g>
                                <g transform="translate(128.51999999999998 41.9)">
                                    <path class="typst-shape" fill="#ff4136" fill-rule="nonzero" d="M 0 0 L 0 0.1 L 0.1 0.1 L 0.1 0 Z "/>
                                </g>
                                <g transform="translate(51 -16.79999999999999)">
                                    <path class="typst-shape" fill="#ff4136" fill-rule="nonzero" d="M 0 0 L 0 0.1 L 0.1 0.1 L 0.1 0 Z "/>
                                </g>
                                <g transform="translate(51 174.16)">
                                    <path class="typst-shape" fill="#ff4136" fill-rule="nonzero" d="M 0 0 L 0 0.1 L 0.1 0.1 L 0.1 0 Z "/>
                                </g>
                            </g>
                        </g>
                    </g>
                </g>
            </g>
        </g>
    </g>
</svg>
